!!!!SEGMENT: pl-sa--288-a-vii-48--006_lechleitner-ferdinand-simon--litania-de-b-v-mariae-regina-angelorum.krn
!!!cenid: 17xx:441
!!!COM: Lechleitner, Ferdinand Simon
!!!COM-rismid: pe30001903
!!!CDT: ~1700-~1800
!!!CNT:
!!!OPR: Litania de B.V. Mariae
!!!OTL: Regina angelorum
!!!OMV: 006
!!!PDT: 1741
!!!AGN: Sacred; Mass
!!!SMS-siglum: PL-SA
!!!SMS-shelfmark: 288/A VII 48
!!!SMS-shelfwork: 001-006 M
!!!NIFC-rismid: 1001039077
!!!URL-scan: http://bc.bdsandomierz.pl/dlibra/publication/1784/edition/1752/content
!!!ONB-nifc: UWAGA: części Litanii: Kyrie, Sancta Maria, Virgo prudentissima,
!!!key:
**kern	**fba	**kern	**kern	**kern	**text	**kern	**text	**kern	**text	**kern	**text	**kern	**kern
*part9	*	*part8	*part7	*part6	*part6	*part5	*part5	*part4	*part4	*part3	*part3	*part2	*part1
*group3	*	*group3	*group3	*group2	*	*group2	*	*group2	*	*group2	*	*group1	*group1
*staff9	*	*staff8	*staff7	*staff6	*staff6	*staff5	*staff5	*staff4	*staff4	*staff3	*staff3	*staff2	*staff1
*Iviola	*	*Ivioln	*Ivioln	*Iempty	*	*Itenor	*	*Ialto	*	*Ivox	*	*Iempty	*Iempty
*I"Viola Baſso	*	*I"Violino 2do	*I"Violino 1mo	*I"Baſso	*	*I"Tenore	*	*I"Alto	*	*I"Canto	*	*I"Clarino 2do Ex. B.	*I"Clarino 1mo Ex. B.
*I'vla basso	*	*I'vl II	*I'vl I	*I'B	*	*I'T	*	*I'A	*	*I'S	*	*I'clno II	*I'clno I
*clefF4	*	*clefG2	*clefG2	*clefF4	*	*clefC4	*	*clefC3	*	*clefC1	*	*clefG2	*clefG2
*	*	*	*	*	*	*	*	*	*	*	*	*ITrd1c2	*ITrd1c2
*k[b-e-]	*	*k[b-e-]	*k[b-e-]	*k[b-e-]	*	*k[b-e-]	*	*k[b-e-]	*	*k[b-e-]	*	*k[b-e-]	*k[b-e-]
*B-:	*	*B-:	*B-:	*B-:	*	*B-:	*	*B-:	*	*B-:	*	*	*
*M2/2	*	*M2/2	*M2/2	*M2/2	*	*M2/2	*	*M2/2	*	*M2/2	*	*M2/2	*M2/2
*met(c)	*	*met(c|)	*met(c)	*met(c)	*	*met(c)	*	*met(c)	*	*met(c)	*	*met(c|)	*met(c|)
=1	=1	=1	=1	=1	=1	=1	=1	=1	=1	=1	=1	=1	=1
!LO:TX:a:t=P:problem=brak nazwy partii na karcie głosu, na stronie tytułowej "Viola Baſso"	!	!	!	!	!	!	!	!	!	!	!	!	!
!LO:TX:a:t=P:problem=bemole BB- E- B-	!	!LO:TX:a:t=P:problem=bemole ee- b-	!	!LO:TX:a:t=P:problem=bemole BB- E- B-	!	!	!	!	!	!	!	!	!
!LO:TX:b:t=Regina	!	!LO:TX:b:t=Regina	!LO:TX:b:t=Regina	!	!	!	!	!	!	!	!	!LO:TX:b:t=Regina	!LO:TX:b:t=Regina.
!	!	!LO:TX:a:t=Alle&colon;	!	!	!	!LO:TX:a:t=allegro	!	!LO:TX:a:t=allegro	!	!LO:TX:a:i:t=Solo	!	!	!
4BB-/	.	8f/L	16b-\LL	00r	.	00r	.	00r	.	00r	.	16d/LL	16b-\LL
.	.	.	16cc\	.	.	.	.	.	.	.	.	16f/	16cc\
.	.	16b-/L	16dd\	.	.	.	.	.	.	.	.	16b-/	16dd\
.	.	16cc/JJ	16ee-\JJ	.	.	.	.	.	.	.	.	16cc/JJ	16ee-\JJ
8B-\L	.	8dd\L	16ff\LL	.	.	.	.	.	.	.	.	8dd\L	8ff\L
.	.	.	16dd\	.	.	.	.	.	.	.	.	.	.
8E-\J	.	8b-\J	16gg\	.	.	.	.	.	.	.	.	16ee-\L	16gg\L
.	.	.	16ff\JJ	.	.	.	.	.	.	.	.	16dd\JJ	16ff\JJ
!LO:LB:g=original	!	!	!	!	!	!	!	!	!	!	!	!	!
!LO:TX:a:t=P:problem=mixed beam	!	!	!	!	!	!	!	!	!	!	!	!	!LO:LB:g=original
8B-\L	.	8dd\L	8ff\L	.	.	.	.	.	.	.	.	8ee-\L	8ff\L
8D/	6	16b-\L	16dd\L	.	.	.	.	.	.	.	.	16b-\L	16dd\L
.	.	16cc\JJ	16ee-\JJ	.	.	.	.	.	.	.	.	16cc\JJ	16ee-\JJ
!	!	!	!LO:LB:g=original	!	!	!	!	!	!	!	!	!	!
8BB-/	.	8dd\L	16ff\LL	.	.	.	.	.	.	.	.	8dd\L	8ff\L
.	.	.	16dd\	.	.	.	.	.	.	.	.	.	.
8E-/J	.	8b-\J	16gg\	.	.	.	.	.	.	.	.	16ee-\L	16gg\L
.	.	.	16ff\JJ	.	.	.	.	.	.	.	.	16dd\JJ	16ff\JJ
=2	=2	=2	=2	=2	=2	=2	=2	=2	=2	=2	=2	=2	=2
8BB-/L	.	8dd\L	8ff\L	.	.	.	.	.	.	.	.	8.dd\L	8ff\L
8D/J	.	16ee-\L	16gg\L	.	.	.	.	.	.	.	.	.	16gg\L
.	.	16dd\JJ	16ff\JJ	.	.	.	.	.	.	.	.	16dd\Jk	16ff\JJ
8E-\L	.	16cc/LL	16ee-\LL	.	.	.	.	.	.	.	.	16cc/LL	16ee-\LL
.	.	16b-/	16dd\	.	.	.	.	.	.	.	.	16b-/	16dd\
8G\J	.	16a/	16cc\	.	.	.	.	.	.	.	.	16f/	16cc\
.	.	16g/JJ	16b-\JJ	.	.	.	.	.	.	.	.	16d/JJ	16b-\JJ
8F\L	.	8a/L	8a/L	.	.	.	.	.	.	.	.	8f/L	16cc\LL
.	.	.	.	.	.	.	.	.	.	.	.	.	16b-\
16F\L	.	8c/J	8f/J	.	.	.	.	.	.	.	.	16f/L	16cc\
16G\JJ	.	.	.	.	.	.	.	.	.	.	.	16d/JJ	16b-\JJ
8A\L	.	4r	4r	.	.	.	.	.	.	.	.	8f/L	8cc\L
8B-\J	.	.	.	.	.	.	.	.	.	.	.	8b-/J	8dd\J
!	!	!LO:LB:g=original	!	!	!	!	!	!	!	!	!	!	!
=3	=3	=3	=3	=3	=3	=3	=3	=3	=3	=3	=3	=3	=3
4F\	.	8c/L	16f/LL	.	.	.	.	.	.	.	.	4f/	4cc\
.	.	.	16g/	.	.	.	.	.	.	.	.	.	.
.	.	16f/L	16a/	.	.	.	.	.	.	.	.	.	.
.	.	16g/JJ	16b-/JJ	.	.	.	.	.	.	.	.	.	.
!LO:TX:a:t=P:problem=mixed beam	!	!	!	!	!	!	!	!	!	!	!	!	!
8F\L	.	8a/L	16cc\LL	.	.	.	.	.	.	.	.	8r	8r
.	.	.	16a\	.	.	.	.	.	.	.	.	.	.
8FF/J	.	16b-/L	16dd\	.	.	.	.	.	.	.	.	8d/	8b-\
.	.	16a/JJ	16cc\JJ	.	.	.	.	.	.	.	.	.	.
8F\L	.	8a/L	8cc\L	.	.	.	.	.	.	.	.	4f/	4cc\
8A\J	6	16f/L	16a\L	.	.	.	.	.	.	.	.	.	.
.	.	16g/JJ	16b-\JJ	.	.	.	.	.	.	.	.	.	.
!LO:TX:a:t=P:problem=mixed beam	!	!	!	!	!	!	!	!	!	!	!	!	!
8F\L	.	8a/L	16cc\LL	.	.	.	.	.	.	.	.	8r	8r
.	.	.	16a\	.	.	.	.	.	.	.	.	.	.
8BB-/J	.	16b-/L	16dd\	.	.	.	.	.	.	.	.	8d/	8b-\
.	.	16a/JJ	16cc\JJ	.	.	.	.	.	.	.	.	.	.
=4	=4	=4	=4	=4	=4	=4	=4	=4	=4	=4	=4	=4	=4
8F\L	.	16a/LL	16cc\LL	.	.	.	.	.	.	.	.	16f/LL	16cc\LL
.	.	16g/	16b-\	.	.	.	.	.	.	.	.	16d/	16b-\
8c\J	.	16a/	16cc\	.	.	.	.	.	.	.	.	16f/	16cc\
.	.	16b-/JJ	16dd\JJ	.	.	.	.	.	.	.	.	16b-/JJ	16dd\JJ
8A\L	6	16cc\LL	16ee-\LL	.	.	.	.	.	.	.	.	8cc\L	8ee-\L
.	.	16a\	16cc\	.	.	.	.	.	.	.	.	.	.
8F\J	.	16dd\	16ff\	.	.	.	.	.	.	.	.	16dd\L	16ff\L
.	.	16cc\JJ	16ee-\JJ	.	.	.	.	.	.	.	.	16cc\JJ	16ee-\JJ
8B-\L	.	8b-/L	16dd\LL	.	.	.	.	.	.	.	.	8b-/L	8.dd\L
.	.	.	16ff\	.	.	.	.	.	.	.	.	.	.
8E-\J	6	8g/J	16gg\	.	.	.	.	.	.	.	.	8f/J	.
.	.	.	16cc\JJ	.	.	.	.	.	.	.	.	.	16cc\Jk
!LO:TX:a:t=P:problem=mixed beam	!	!	!	!	!	!	!	!	!	!	!	!	!
8F/L	.	8f/L	8dd\L	.	.	.	.	.	.	.	.	8f/L	8.ccM\L
8FF/J	4	8f/J	16cc\L	.	.	.	.	.	.	.	.	16f/L	.
.	3	.	16b-\JJ	.	.	.	.	.	.	.	.	16f/JJ	16b-\Jk
=5	=5	=5	=5	=5	=5	=5	=5	=5	=5	=5	=5	=5	=5
4BB-/	.	4f/	4b-\	00r	.	00r	.	0r	.	16b-\LL	Re-	4d/	4b-\
.	.	.	.	.	.	.	.	.	.	16cc\	.	.	.
.	.	.	.	.	.	.	.	.	.	16dd\	.	.	.
.	.	.	.	.	.	.	.	.	.	16ee-\JJ	.	.	.
8r	.	4r	4r	.	.	.	.	.	.	(16ff\LL	-gi-	4r	4r
.	.	.	.	.	.	.	.	.	.	16dd\JJ)	.	.	.
8E-\	.	.	.	.	.	.	.	.	.	(16gg\LL	-na	.	.
.	.	.	.	.	.	.	.	.	.	16ff\JJ)	.	.	.
8BB-/L	.	2rg	2r	.	.	.	.	.	.	8ff\	an-	2rg	2rg
16BB-/L	.	.	.	.	.	.	.	.	.	(16dd\LL	-ge-	.	.
16C/JJ	.	.	.	.	.	.	.	.	.	16ff\JJ)	.	.	.
8D\L	6	.	.	.	.	.	.	.	.	16ff\LL	-lo-	.	.
.	.	.	.	.	.	.	.	.	.	16dd\	.	.	.
8E-\J	.	.	.	.	.	.	.	.	.	16gg\	.	.	.
.	.	.	.	.	.	.	.	.	.	16ff\JJ	.	.	.
!LO:LB:g=original	!	!	!	!	!	!	!	!	!	!	!	!LO:LB:g=original	!
=6	=6	=6	=6	=6	=6	=6	=6	=6	=6	=6	=6	=6	=6
4BB-/	.	2rg	2r	.	.	.	.	.	.	8ff\	-rum	2rg	2rg
.	.	.	.	.	.	.	.	.	.	16gg\LL	o-	.	.
.	.	.	.	.	.	.	.	.	.	16ff\JJ	.	.	.
8r	.	.	.	.	.	.	.	.	.	16ee-\LL	-ra	.	.
.	.	.	.	.	.	.	.	.	.	16dd\JJ	.	.	.
!	!	!	!	!	!	!	!	!	!	!LO:PB:g=original	!	!	!
!	!	!	!	!	!	!	!	!	!	!LO:TX:a:t=P:problem=brak dalszej części głosu	!	!	!
8E-\	6 5	.	.	.	.	.	.	.	.	8ryy	.	.	.
!LO:TX:a:t=P:problem=mixed beam	!	!	!LO:N:vis=8	!	!	!	!	!	!	!	!	!	!
8F\L	.	16r	16r	.	.	.	.	.	.	2ryy	.	16r	16r
.	.	16a/LL	16cc\LL	.	.	.	.	.	.	.	.	16cc\LL	16ff\LL
8AA/	6	16a/	16cc\	.	.	.	.	.	.	.	.	16cc\	16ff\
.	.	16a/JJ	16cc\JJ	.	.	.	.	.	.	.	.	16cc\JJ	16ff\JJ
8BB-/	6	16dd\LL	16ff\LL	.	.	.	.	.	.	.	.	16dd\LL	16ff\LL
.	.	16dd\	16ff\	.	.	.	.	.	.	.	.	16dd\	16ff\
8C/J	n	16cc\	16ee\	.	.	.	.	.	.	.	.	16cc\	16ee\
.	.	16cc\JJ	16ee\JJ	.	.	.	.	.	.	.	.	16cc\JJ	16ee\JJ
!	!	!	!LO:LB:g=original	!	!	!	!	!	!	!	!	!	!
=7	=7	=7	=7	=7	=7	=7	=7	=7	=7	=7	=7	=7	=7
!	!	!	!LO:TX:a:t=P:problem=mixed beam	!	!	!	!	!	!	!	!	!	!
4F\	.	4cc\	8ff\L	.	.	.	.	(16f\LL	Re-	1ryy	.	4cc\	4ff\
.	.	.	.	.	.	.	.	16en\	.	.	.	.	.
.	.	.	8f/J	.	.	.	.	16f\)	.	.	.	.	.
.	.	.	.	.	.	.	.	16g\JJ	.	.	.	.	.
!	!	!	!	!	!	!	!	!LO:LB:g=original	!	!	!	!	!
8r	.	4r	4r	.	.	.	.	8a\	-gi-	.	.	4r	4r
8BB-/	.	.	.	.	.	.	.	16b-\LL	-na	.	.	.	.
.	.	.	.	.	.	.	.	16a\JJ	.	.	.	.	.
8F\L	.	2rg	2r	.	.	.	.	8a\	Pa-	.	.	2rg	2rg
16A\L	.	.	.	.	.	.	.	16f\	-tri-	.	.	.	.
16G\JJ	.	.	.	.	.	.	.	16g\	-ar-	.	.	.	.
!LO:TX:a:t=P:problem=mixed beam	!	!	!	!	!	!	!	!	!	!	!	!	!
8F\L	.	.	.	.	.	.	.	8a\L	-cha-	.	.	.	.
8BB-/J	.	.	.	.	.	.	.	16b-\L	-rum	.	.	.	.
.	.	.	.	.	.	.	.	16a\JJ	.	.	.	.	.
!	!	!	!	!	!	!	!	!	!	!	!	!	!LO:LB:g=original
=8	=8	=8	=8	=8	=8	=8	=8	=8	=8	=8	=8	=8	=8
!	!	!	!	!	!	!	!	!	!	!	!	!LO:TX:a:t=5	!
8F\L	.	00r	00r	.	.	.	.	8a\	o-	1ryy	.	00r	00r
16F\L	.	.	.	.	.	.	.	16a\LL	.	.	.	.	.
16G\JJ	.	.	.	.	.	.	.	16g\JJ	.	.	.	.	.
8A\L	6	.	.	.	.	.	.	8f\	-ra	.	.	.	.
8c\J	.	.	.	.	.	.	.	8en\	pro-	.	.	.	.
!LO:TX:a:t=P:problem=mixed beam	!	!	!	!	!	!	!	!	!	!	!	!	!
8F\L	.	.	.	.	.	.	.	8f\	-no-	.	.	.	.
8B-\	6 5	.	.	.	.	.	.	(16g\LL	.	.	.	.	.
.	.	.	.	.	.	.	.	16f\JJ)	.	.	.	.	.
8c\	.	.	.	.	.	.	.	(8f\L	.	.	.	.	.
8C/J	4	.	.	.	.	.	.	8en\J)	.	.	.	.	.
.	3	.	.	.	.	.	.	.	.	.	.	.	.
!	!	!	!	!	!	!LO:LB:g=original	!	!	!	!	!	!	!
=9	=9	=9	=9	=9-	=9	=9	=9	=9	=9	=9	=9	=9	=9
4F\	.	.	.	16F\LL	Re-	16F/LL	Re-	4f\	-bis	1ryy	.	.	.
.	.	.	.	16E-\	.	16G/	.	.	.	.	.	.	.
.	.	.	.	16F\	.	16A/	.	.	.	.	.	.	.
.	.	.	.	16G\JJ	.	16B-/JJ	.	.	.	.	.	.	.
!LO:TX:a:t=P:problem=mixed beam	!	!	!	!	!	!	!	!	!	!	!	!	!
8F\L	.	.	.	8A\	-gi-	(16c\LL	-gi-	4r	.	.	.	.	.
.	.	.	.	.	.	16B-\JJ)	.	.	.	.	.	.	.
8BB-/J	.	.	.	(16B-\LL	-na	(16d\LL	-na	.	.	.	.	.	.
.	.	.	.	16A\JJ)	.	16c\JJ)	.	.	.	.	.	.	.
8F\L	.	.	.	8A\	Pro-	8c\	Pro-	2r	.	.	.	.	.
8A\J	6	.	.	(16F\LL	-phe-	(16A\LL	-phe-	.	.	.	.	.	.
.	.	.	.	16G\JJ)	.	16B-\JJ)	.	.	.	.	.	.	.
!LO:TX:a:t=P:problem=mixed beam	!	!	!	!LO:SIC:l:s=-ta-:v	!	!	!	!	!	!	!	!	!
8F\L	.	.	.	16A\LL	-t-	16c\LL	-ta-	.	.	.	.	.	.
.	.	.	.	16F\	.	16A\	.	.	.	.	.	.	.
8BB-/J	.	.	.	16B-\	.	16d\	.	.	.	.	.	.	.
.	.	.	.	16A\JJ	.	16c\JJ	.	.	.	.	.	.	.
=10	=10	=10	=10	=10	=10	=10	=10	=10	=10	=10	=10	=10	=10
4F\	.	.	.	8A\	-rum	8c,<\	-rum	00r	.	1ryy	.	.	.
.	.	.	.	(16F\LL	a-	(16A\LL	a-	.	.	.	.	.	.
.	.	.	.	16G\JJ)	.	16B-\JJ)	.	.	.	.	.	.	.
!	!	!	!	!LO:LB:g=original	!	!	!	!	!	!	!	!	!
8r	.	.	.	(16A\LL	-po-	(16c\LL	-po-	.	.	.	.	.	.
.	.	.	.	16F\JJ)	.	16A\JJ)	.	.	.	.	.	.	.
8BB-/	.	.	.	(16B-\LL	-sto-	(16d\LL	-sto-	.	.	.	.	.	.
.	.	.	.	16A\JJ)	.	16c\JJ)	.	.	.	.	.	.	.
8F\L	.	.	.	16A\LL	-lo-	16c\LL	-lo-	.	.	.	.	.	.
.	.	.	.	16G\	.	16B-\	.	.	.	.	.	.	.
8A\J	6	.	.	16A\	.	16c\	.	.	.	.	.	.	.
.	.	.	.	16B-\JJ	.	16d\JJ	.	.	.	.	.	.	.
8c\L	.	.	.	16c\LL	.	16e-\LL	.	.	.	.	.	.	.
.	.	.	.	16B-\	.	16d\	.	.	.	.	.	.	.
8F\J	.	.	.	16c\	.	16e-\	.	.	.	.	.	.	.
.	.	.	.	16A\JJ	.	16c\JJ	.	.	.	.	.	.	.
!LO:LB:g=original	!	!	!	!	!	!	!	!	!	!	!	!	!
=11	=11	=11	=11	=11	=11	=11	=11	=11	=11	=11	=11	=11	=11
!LO:TX:a:t=P:problem=mixed beam	!	!	!	!	!	!	!	!	!	!	!	!	!
8B-\L	.	.	.	8B-\	-rum	8d\	-rum	.	.	1ryy	.	.	.
8BB-/	.	.	.	(16d\LL	Re-	(16f\LL	Re-	.	.	.	.	.	.
.	.	.	.	16c\JJ)	.	16e-\JJ)	.	.	.	.	.	.	.
8B-\	.	.	.	(16B-\LL	-gi-	(16d\LL	-gi-	.	.	.	.	.	.
.	.	.	.	16c\JJ)	.	16e-\JJ)	.	.	.	.	.	.	.
8A\J	.	.	.	(16B-\LL	-na	(16d\LL	-na	.	.	.	.	.	.
.	.	.	.	16A\JJ)	.	16c\JJ)	.	.	.	.	.	.	.
8G\L	-	.	.	8.G\	Mar-	8.B-\	mar-	.	.	.	.	.	.
8F\J	.	.	.	.	.	.	.	.	.	.	.	.	.
.	.	.	.	16G\	-ti-	16B-\	-ty-	.	.	.	.	.	.
!LO:TX:a:t=P:problem=mixed beam	!	!	!	!	!	!LO:LB:g=original	!	!	!	!	!	!	!
8G\L	.	.	.	8G\	-rum	8B-\	-rum	.	.	.	.	.	.
8C/J	-	.	.	8c\	a	8e-\	et	.	.	.	.	.	.
=12	=12	=12	=12	=12	=12	=12	=12	=12	=12	=12	=12	=12	=12
!LO:TX:a:t=P:problem=mixed beam	!	!	!	!	!	!	!	!	!	!	!	!	!
8BB-/L	.	1r	1r	8B-\	po-	8d\	Con-	.	.	1ryy	.	1r	1r
8F\J	.	.	.	8A\	-sto-	8c\	-feſ-	.	.	.	.	.	.
!LO:TX:a:t=P:problem=mixed beam	!	!	!	!	!	!	!	!	!	!	!	!	!
8G\L	7	.	.	16G\LL	-lo-	16B-\LL	-so-	.	.	.	.	.	.
.	.	.	.	16B-\	.	16d\	.	.	.	.	.	.	.
8C/J	7	.	.	16A\	.	16c\	.	.	.	.	.	.	.
.	.	.	.	16G\JJ	.	16B-\JJ	.	.	.	.	.	.	.
4F\	.	.	.	8F\	-rum	8A/	-rum	.	.	.	.	.	.
.	.	.	.	(16F\LL	o-	(16A\LL	o-	.	.	.	.	.	.
.	.	.	.	16G\JJ)	.	16B-\JJ)	.	.	.	.	.	.	.
8F\L	.	.	.	(16A\LL	-ra	(16c\LL	-ra	.	.	.	.	.	.
.	.	.	.	16F\JJ)	.	16A\JJ)	.	.	.	.	.	.	.
8E-\J	6 5	.	.	(16G\LL	o-	(16B-\LL	o-	.	.	.	.	.	.
.	.	.	.	16A\JJ)	.	16c\JJ)	.	.	.	.	.	.	.
=13	=13	=13-	=13	=13	=13	=13	=13	=13	=13	=13	=13	=13	=13
!LO:TX:a:t=P:problem=mixed beam	!	!	!	!	!	!	!	!	!	!	!	!	!
8D\L	6	2rg	2r	8B-\	-ra	8d\	-ra	.	.	1ryy	.	2rg	2rg
8E-\	6	.	.	8E-\	pro-	8c\	pro-	.	.	.	.	.	.
!	!	!	!	!LO:TX:a:t=P:problem=mixed beam	!	!	!	!	!	!	!	!	!
8F\	4	.	.	8F\L	-no-	4c\	-no-	.	.	.	.	.	.
8FF/J	3	.	.	8FF/J	.	.	.	.	.	.	.	.	.
4BB-/	.	8f/L	16b-\LL	4BB-/	-bis	4B-\	-bis	.	.	.	.	16d/LL	16b-\LL
.	.	.	16cc\	.	.	.	.	.	.	.	.	16f/	16cc\
.	.	16b-/L	16dd\	.	.	.	.	.	.	.	.	16b-/	16dd\
.	.	16cc/JJ	16ee-\JJ	.	.	.	.	.	.	.	.	16cc/JJ	16ee-\JJ
4r	.	8dd\L	16ff\LL	4r	.	4r	.	.	.	.	.	8dd\L	8ff\L
.	.	.	16dd\	.	.	.	.	.	.	.	.	.	.
.	.	8b-\J	16gg\	.	.	.	.	.	.	.	.	16ee-\L	16gg\L
.	.	.	16ff\JJ	.	.	.	.	.	.	.	.	16dd\JJ	16ff\JJ
!	!	!LO:LB:g=original	!	!	!	!	!	!	!	!	!	!	!
=14	=14	=14	=14	=14	=14	=14	=14	=14	=14	=14	=14	=14	=14
*clefC4	*	*	*	*	*	*	*	*	*	*	*	*	*
*k[b-e-]	*	*	*	*	*	*	*	*	*	*	*	*	*
!LO:TX:a:t=P:problem=bemole B- e-, po kluczu	!	!	!	!	!	!	!	!	!	!	!	!	!
8r	.	4dd\	4ff\	1r	.	8r	.	8r	.	1ryy	.	8dd\L	8ff\L
8B-\L	.	.	.	.	.	8B-\	Re-	8f\	Re-	.	.	8b-\J	8dd\J
8B-\	4	4r	4r	.	.	8B-\	-gi-	8f\	-gi-	.	.	4r	4r
.	3	.	.	.	.	.	.	.	.	.	.	.	.
8B-\J	.	.	.	.	.	8B-\	-na	8f\	-na	.	.	.	.
8.c\L	.	2rg	2r	.	.	8.c\	Vir-	8.e-\	vir-	.	.	2rg	2rg
16c\Jk	7	.	.	.	.	16c\	-gi-	16e-\	-gi-	.	.	.	.
8c\L	6	.	.	.	.	8c\	-num	8e-\	-num	.	.	.	.
8c\J	.	.	.	.	.	8c\	o-	8e-\	o-	.	.	.	.
!	!	!	!	!LO:LB:g=original	!	!	!	!	!	!	!	!	!
=15	=15	=15	=15	=15	=15	=15	=15	=15	=15	=15	=15	=15	=15
8d\L	6	2rg	2r	2r	.	8d\	-ra	8f\	-ra-	1ryy	.	2rg	2rg
8c\J	6	.	.	.	.	8c\	pro-	8e-\	-pro-	.	.	.	.
!	!	!	!	!	!	!LO:LB:g=original	!	!LO:LB:g=original	!	!	!	!	!
16B-\LL	.	.	.	.	.	(16B-\LL	-no-	16d\LL	-no-	.	.	.	.
16c\	.	.	.	.	.	16c\	.	16e-\	.	.	.	.	.
16d\	6	.	.	.	.	16d\)	.	16f\	.	.	.	.	.
16e-\JJ	6	.	.	.	.	16e-\JJ	.	16g\JJ	.	.	.	.	.
8f\	.	16r	16r	8r	.	8f,<\	-bis	8a,<\	-bis	.	.	8r	8r
.	.	16cc\LL	16aa\LL	.	.	.	.	.	.	.	.	.	.
*clefF4	*	*	*	*	*	*	*	*	*	*	*	*	*
*k[b-e-]	*	*	*	*	*	*	*	*	*	*	*	*	*
!	!	!	!	!	!	!	!	!	!	!	!	!LO:SIC:custos f:v	!
!LO:TX:a:t=P:problem=bemole BB- E- B-, po kluczu	!	!	!	!	!	!LO:TX:a:t=Tut	!	!	!	!	!	!LO:PB:g=original	!
8F\L	.	16cc\	16aa\	8F\	Re-	8c\	Re-	8f\	Re-	.	.	8f/L	8cc\L
.	.	16cc\JJ	16aa\JJ	.	.	.	.	.	.	.	.	.	.
8F\	.	16cc\LL	16aa\LL	8F\	-gi-	8c\	-gi-	8f\	-gi-	.	.	8f/	8cc\
.	.	16cc\	16aa\	.	.	.	.	.	.	.	.	.	.
8F\J	.	16cc\	16aa\	8F\	-na	8c\	-na	8f\	-na	.	.	8f/J	8cc\J
.	.	16cc\JJ	16aa\JJ	.	.	.	.	.	.	.	.	.	.
!LO:LB:g=original	!	!	!	!	!	!	!	!	!	!	!	!	!
=16	=16	=16	=16	=16	=16	=16	=16	=16	=16	=16	=16	=16	=16
8.G\L	.	16dd\LL	16ff\LL	8.G\	Vir-	8.B-\	Vir-	8.f\	Vir-	1ryy	.	8.b-\L	8.ff\L
.	7	16dd\	16ff\	.	.	.	.	.	.	.	.	.	.
.	.	16dd\	16ff\	.	.	.	.	.	.	.	.	.	.
16G\Jk	.	16dd\JJ	16ff\JJ	16G\	-gi-	16B-\	-gi-	16f\	-gi-	.	.	16b-\Jk	16ff\Jk
8G\L	6	16b-/LL	16een\LL	8G\	-num	8e-\	-num	8e-,<\	-num	.	.	8b-\L	8ee-\L
.	.	16b-/	16ee\	.	.	.	.	.	.	.	.	.	.
8G\J	.	16b-/	16ee\	8G\	o-	8e-\	o-	8e-\	o-	.	.	16b-\L	16ee-\L
.	.	16b-/JJ	16ee\JJ	.	.	.	.	.	.	.	.	16b-\JJ	16dd\JJ
8A\L	6	16a\LL	16ff\LL	8A\	-ra	8c\	-ra	8f\	-ra	.	.	8f\L	16cc\LL
.	.	16cc\	16ff\	.	.	.	.	.	.	.	.	.	16dd\
8G\J	.	16dd\	16ff\	8G\	pro-	8e-\	pro-	8g\	pro-	.	.	8b-\J	16ee-\
.	.	16ee-\JJ	16gg\JJ	.	.	.	.	.	.	.	.	.	16dd\JJ
8F\L	.	16ff\LL	16aa\LL	8F\L	-no-	4c\	-no-	8a\L	-no-	.	.	8f/L	8.ccM\L
.	.	16ff\	16aa\	.	.	.	.	.	.	.	.	.	.
16G\L	.	16dd\	16gg\	16G\L	.	.	.	16g\L	.	.	.	16f/L	.
16A\JJ	.	16cc\JJ	16ff\JJ	16A\JJ	.	.	.	16f\JJ	.	.	.	16f/JJ	16cc\Jk
=17	=17	=17	=17	=17	=17	=17	=17	=17	=17	=17	=17	=17	=17
!	!	!LO:TX:a:t=P:problem=mixed beam	!LO:TX:a:t=P:problem=mixed beam	!	!	!	!	!	!	!	!	!	!
8B-\L	.	16dd\LL	16ff\LL	8B-,<\	-bis	8B-,<\	-bis	8f,<\	-bis	1ryy	.	8d/L	8b-/L
.	.	16f/	16f/	.	.	.	.	.	.	.	.	.	.
8B-\	.	16f/	16f/	8B-\	Re-	8B-\	Re-	8f\	Re-	.	.	8f/	8f/
.	.	16f/JJ	16f/JJ	.	.	.	.	.	.	.	.	.	.
8A\	6	16f/LL	16f/LL	(8A\L	-gi-	(8c\L	-gi-	4f\	-gi-	.	.	8f/	8f/
.	.	16f/	16f/	.	.	.	.	.	.	.	.	.	.
8B-\J	.	16f/	16f/	8B-\J)	.	8d\J)	.	.	.	.	.	8f/J	8f/J
.	.	16f/JJ	16f/JJ	.	.	.	.	.	.	.	.	.	.
!	!	!LO:TX:a:t=P:problem=mixed beam	!LO:TX:a:t=P:problem=mixed beam	!	!	!	!	!	!	!	!	!	!
8F\L	.	16f/LL	16f/LL	8F\	-na	8c\	-na	8f\	-na	.	.	8f/L	8f/L
.	.	16ff\	16ff\	.	.	.	.	.	.	.	.	.	.
8B-\	.	16ff\	16ff\	8B-\	San-	8d\	San-	8f\	San-	.	.	16f/L	16f/L
.	.	16ff\JJ	16ff\JJ	.	.	.	.	.	.	.	.	16f/JJ	16f/JJ
!	!	!	!LO:LB:g=original	!	!	!	!	!	!	!	!	!	!
8A\	6	16ff\LL	16ff\LL	8A\	-cto-	8c\	-cto-	8f\	-cto-	.	.	8f/L	16f/LL
.	.	16cc\	16ff\	.	.	.	.	.	.	.	.	.	16f/
8B-\J	.	16b-\	16ff\	8B-\	-rum	8d\	-rum	8f\	-rum	.	.	8f/J	16f/
.	.	16dd\JJ	16ff\JJ	.	.	.	.	.	.	.	.	.	16f/JJ
=18	=18	=18	=18	=18	=18	=18	=18	=18	=18	=18	=18	=18	=18
!	!	!LO:TX:a:t=P:problem=mixed beam	!	!	!	!	!	!	!	!	!	!	!
8.F\L	.	16ff\LL	16aa\LL	8.F\	om-	8.A/	om-	8.f\	om-	1ryy	.	16f/LL	8f/L
.	.	16a/	16cc\	.	.	.	.	.	.	.	.	16f/	.
.	.	16a/	16cc\	.	.	.	.	.	.	.	.	16f/	16f/L
16E-\Jk	4 2	16a/JJ	16cc\JJ	16E-\	-ni-	16A/	-ni-	16f\	-ni-	.	.	16f/JJ	16f/JJ
!	!	!	!	!	!	!LO:N:vis=8	!	!	!	!	!	!	!LO:TX:a:t=P:problem=mixed beam
8D\L	6	16b-/LL	16dd\LL	8D\	-um	4B-\	-um	8f\	-um	.	.	8f/L	8f/L
.	.	16b-/	16dd\	.	.	.	.	.	.	.	.	.	.
8G\J	-	16b-/	16dd\	8G\	o-	.	.	8g\	o-	.	.	8b-/J	8dd\J
.	.	16b-/JJ	16dd\JJ	.	.	.	.	.	.	.	.	.	.
8E-\L	6_ 5_	16ee-\LL	16gg\LL	8E-\	-ra	8B-\	o-	8g\	-ra	.	.	16cc\LL	16ee-\LL
.	.	16ee-\	16gg\	.	.	.	.	.	.	.	.	16dd\	16ff\
8C\J	.	16ee-\	16gg\	8C/	pro-	8B-\	-ra	8g\	pro-	.	.	16cc\	16ee-\
.	.	16ee-\JJ	16gg\JJ	.	.	.	.	.	.	.	.	16b-\JJ	16dd\JJ
!LO:TX:a:t=P:problem=mixed beam	!	!	!	!LO:TX:a:t=P:problem=mixed beam	!	!LO:LB:g=original	!	!LO:LB:g=original	!	!	!	!	!
8F\L	X X	16dd\LL	16ff\LL	(8F\L	-no-	(8B-\L	pro-	4f\	-no-	.	.	8f/L	4ccM\
.	.	16cc\	16ee-\	.	.	.	.	.	.	.	.	.	.
8FF/J	4	16b-\	16dd\	8FF/J)	.	8c\J)	.	.	.	.	.	16f/L	.
.	3	16a\JJ	16cc\JJ	.	.	.	.	.	.	.	.	16f/JJ	.
!	!	!	!	!	!	!	!	!	!	!	!	!	!LO:SIC:custos b:v
!	!	!LO:LB:g=original	!	!	!	!	!	!	!	!	!	!	!LO:PB:g=original
=19	=19	=19	=19	=19	=19	=19	=19	=19	=19	=19	=19	=19	=19
!LO:TX:a:t=P:problem=mixed beam	!	!	!	!	!	!	!	!	!	!	!	!	!
8BB-/L	.	16b-\LL	16dd\LL	8BB-,</	-bis	8d\	-no-	8f,<\	-bis	1ryy	.	4d/	4b-\
.	.	16dd\	16ff\	.	.	.	.	.	.	.	.	.	.
8B-\	.	16dd\	16ff\	8B-\	San-	(8d\L	.	8d\	San-	.	.	.	.
.	.	16dd\JJ	16ff\JJ	.	.	.	.	.	.	.	.	.	.
8A\	6	16cc\LL	16ff#X\LL	8A\	-cto-	8c\J)	.	8f#X\	-cto-	.	.	8r	8r
.	.	16cc\	16ff#\	.	.	.	.	.	.	.	.	.	.
8G\J	-	16dd\	16gg\	8G\	-rum	8B-,<\	-bis	8g\	-rum	.	.	8d/	8d/
.	.	16dd\JJ	16gg\JJ	.	.	.	.	.	.	.	.	.	.
!	!	!LO:TX:a:t=P:problem=mixed beam	!	!LO:LB:g=original	!	!	!	!	!	!	!	!	!
8F#X\L	6_	16ff#X\LL	16aa\LL	8F#X\	om-	8.A/	Re-	8.a\	om-	.	.	8d/L	8d/L
.	.	16a/	16dd\	.	.	.	.	.	.	.	.	.	.
8En\J	.	16a/	16dd\	8En\	-ni-	.	.	.	.	.	.	16d/L	16d/L
.	.	16a/JJ	16dd\JJ	.	.	16A/	-gi-	16g\	-ni-	.	.	16d/JJ	16d/JJ
8F#X\L	.	16a/LL	16dd\LL	8F#X\	-um	8A/	-na	8f#X\	-um	.	.	8d/L	8d/L
.	.	16a/	16dd\	.	.	.	.	.	.	.	.	.	.
8D\J	X	16a/	16dd\	8D/	San-	8A/	San-	8f#\	San-	.	.	8d/J	8d/J
.	.	16a/JJ	16dd\JJ	.	.	.	.	.	.	.	.	.	.
=20	=20	=20	=20	=20	=20	=20	=20	=20	=20	=20	=20	=20	=20
!	!	!	!LO:TX:a:t=P:problem=mixed beam	!	!	!	!	!	!	!	!	!	!
8G\L	-	16b-/LL	16dd\LL	8G\	-cto-	8B-\	-cto-	8g\	-cto-	1ryy	.	16d/LL	16d/LL
.	.	16d/	16d/	.	.	.	.	.	.	.	.	16d/	16d/
8D\J	#	16d/	16d/	8D/	-rum	8A/	-rum	8f#X\	-rum	.	.	16d/	16d/
.	.	16d/JJ	16d/JJ	.	.	.	.	.	.	.	.	16d/JJ	16d/JJ
8BB-/L	6	16d/LL	16d/LL	8BB-/	om-	8.d\	om-	8.g\	om-	.	.	16d/LL	16d/LL
.	7	16d/	16d/	.	.	.	.	.	.	.	.	16d/	16d/
8GG/J	.	16d/	16d/	8GG/	-ni-	.	.	.	.	.	.	16d/	16d/
.	.	16d/JJ	16d/JJ	.	.	16d\	-ni-	16g\	-ni-	.	.	16d/JJ	16d/JJ
!LO:PB:g=original	!	!LO:TX:a:t=P:problem=mixed beam	!LO:TX:a:t=P:problem=mixed beam	!	!	!	!	!	!	!	!	!	!
8D\L	#	16d/LL	16d/LL	8D/	-um	8A/	-um	8f#X\	-um	.	.	8d/L	8d/L
.	.	16b-\	16dd\	.	.	.	.	.	.	.	.	.	.
8G\	-	16b-\	16dd\	8G\	o-	8B-\	o-	8g\	o-	.	.	16d/L	16d/L
.	.	16b-\JJ	16dd\JJ	.	.	.	.	.	.	.	.	16d/JJ	16d/JJ
8F#X\	6	16ff#X\LL	16aa\LL	8F#X\	-ra	8A/	-ra	8a\	-ra	.	.	8d/L	8d/L
.	.	16ff#\	16aa\	.	.	.	.	.	.	.	.	.	.
8G\J	-	16dd\	16gg\	8G\	o-	8B-\	pro-	8g\	o-	.	.	8d/J	8d/J
.	.	16dd\JJ	16gg\JJ	.	.	.	.	.	.	.	.	.	.
!	!	!	!	!	!	!	!	!	!	!	!	!LO:LB:g=original	!
=21	=21	=21	=21	=21	=21	=21	=21	=21	=21	=21	=21	=21	=21
8D\L	#	16dd\LL	16ff#X\LL	8D/	-ra	8d\	-no-	8f#X\	-ra	1ryy	.	16d/LL	8d/L
.	.	16dd\	16gg\	.	.	.	.	.	.	.	.	16d/	.
8G\J	-	16b-\	16gg\	8G\	pro-	8d\	-bis	8g\	pro-	.	.	16d/	8d/J
.	.	16b-\JJ	16gg\JJ	.	.	.	.	.	.	.	.	16d/JJ	.
!LO:TX:a:t=P:problem=mixed beam	!	!	!	!LO:TX:a:t=P:problem=mixed beam	!	!	!	!	!	!	!	!	!
8D\L	4	16a/LL	16gg\LL	(>8d\L	-no-	4d\	pro-	(8g\	-no-	.	.	16d/LL	16d/LL
.	.	16a/	16ff#X\	.	.	.	.	.	.	.	.	16d/	16d/
8DD/J	#	16a/	16ff#\	8D/J)	.	.	.	8f#X\)	.	.	.	16d/	16d/
.	.	16a/JJ	16ff#\JJ	.	.	.	.	.	.	.	.	16d/JJ	16d/JJ
!LO:TX:a:t=P:problem=mixed beam	!	!	!LO:LB:g=original	!	!	!	!	!	!	!	!	!	!
8GG/L	.	16b-/LL	16gg\LL	8G\	-bis	8d\	-no-	8g\	-bis	.	.	4d/	4d/
.	.	16b-/	16dd\	.	.	.	.	.	.	.	.	.	.
8B-\	.	16b-/	16dd\	8B-\	San-	8B-\	-bis	8d\	San-	.	.	.	.
.	.	16b-/JJ	16dd\JJ	.	.	.	.	.	.	.	.	.	.
8A\	.	16cc\LL	16ffn\LL	8A\	-cto-	8c\	San-	8fn\	-cto-	.	.	8r	8r
.	.	16cc\	16ff\	.	.	.	.	.	.	.	.	.	.
8G\J	.	16dd\	16gg\	8G\	-rum	8d\	-cto-	8g\	-rum	.	.	8d/	8b-\
.	.	16ee-\JJ	16gg\JJ	.	.	.	.	.	.	.	.	.	.
=22	=22	=22	=22	=22	=22	=22	=22	=22	=22	=22	=22	=22	=22
!	!	!LO:TX:a:t=P:problem=mixed beam	!	!	!	!	!	!	!	!	!	!	!
8.F\L	.	16ff\LL	16aa\LL	8.F\	om-	8.A/	-rum	8.a\	om-	1ryy	.	8f/L	16cc\LL
.	.	16a/	16cc\	.	.	.	.	.	.	.	.	.	16dd\
.	.	16a/	16cc\	.	.	.	.	.	.	.	.	16d/L	16b-\
16E-\Jk	.	16a/JJ	16cc\JJ	16E-\	-ni-	16A/	om-	16g\	-ni-	.	.	16f/JJ	16cc\JJ
!	!	!LO:LB:g=original	!	!	!	!LO:N:vis=8	!	!LO:LB:g=original	!	!	!	!	!
8D/L	.	16b-/LL	16dd\LL	8D/	-um	4B-\	-ni-	8f\	-um	.	.	8b-\L	8dd\L
.	.	16b-/	16dd\	.	.	.	.	.	.	.	.	.	.
8BB-/J	.	16b-/	16dd\	8BB-/	o-	.	.	8f\	o-	.	.	8dd\J	8ff\J
.	.	16b-/JJ	16dd\JJ	.	.	.	.	.	.	.	.	.	.
!	!	!	!	!	!	!LO:LB:g=original	!	!	!	!	!	!	!
8E-\L	.	16cc\LL	16ee-\LL	8E-\	-ra	8B-\	-um	8g\	-ra-	.	.	8cc\L	8ee-\L
.	.	16cc\	16ee-\	.	.	.	.	.	.	.	.	.	.
8C\J	.	16cc\	16ee-\	8C/	pro-	8B-\	o-	8g\	-pro-	.	.	16cc\L	16ee-\L
.	.	16cc\JJ	16ee-\JJ	.	.	.	.	.	.	.	.	16b-\JJ	16dd\JJ
!LO:TX:a:t=P:problem=mixed beam	!	!	!	!LO:TX:a:t=P:problem=mixed beam	!	!	!	!	!	!	!	!	!
8F\L	.	16b-/LL	16cc\LL	(>8F/L	-no-	8c\	-ra	4f\	-no-	.	.	8.f/L	8.cc\L
.	.	16a/	16cc\	.	.	.	.	.	.	.	.	.	.
8FF/J	4	16a/	16cc\	8FF/J)	.	8c\	pro-	.	.	.	.	.	.
.	3	16a/JJ	16cc\JJ	.	.	.	.	.	.	.	.	16f/Jk	16b-\Jk
=23	=23	=23	=23	=23	=23	=23	=23	=23	=23	=23	=23	=23	=23
!LO:TX:a:t=P:problem=mixed beam	!	!	!	!	!	!	!	!	!	!	!	!	!
8BB-/L	.	16b-\LL	16dd\LL	8BB-/	-bis	8d\	-no-	8f\	-bis	1ryy	.	8d/L	8b-\L
.	.	16dd\	16ff\	.	.	.	.	.	.	.	.	.	.
8B-\J	6	16dd\	16ff\	8B-\	o-	8B-\L	.	8f\L	o-	.	.	8d/	8b-\J
.	.	16dd\JJ	16ff\JJ	.	.	.	.	.	.	.	.	.	.
8F\L	.	16cc\LL	16ff\LL	8F\	-ra	8A\	.	8a\	.	.	.	8f/	8cc\L
.	.	16cc\	16ff\	.	.	.	.	.	.	.	.	.	.
8G\J	.	16b-\	16dd\	8G\	pro-	8B-\J	.	8g\J	.	.	.	8b-/J	16dd\L
.	.	16b-\JJ	16dd\JJ	.	.	.	.	.	.	.	.	.	16ee-\JJ
!	!	!	!	!LO:LB:g=original	!	!	!	!	!	!	!	!	!
!LO:TX:a:t=P:problem=mixed beam	!	!	!	!LO:TX:a:t=P:problem=mixed beam	!	!	!	!	!	!	!	!	!
8D\L	6	16b-\LL	16ff\LL	8D\L	-no-	8B-\	-bis	8f,<\	-ra	.	.	8dd\L	8ff\L
.	.	16b-\	16ff\	.	.	.	.	.	.	.	.	.	.
8E-\	6	16ee-\	16gg\	8E-\	.	(16e-\LL	o-	8g\	o-	.	.	16cc\L	16ee-\L
.	.	16ee-\JJ	16gg\JJ	.	.	16d\JJ)	.	.	.	.	.	16b-\JJ	16dd\JJ
8F\	4	16cc\LL	16ff\LL	8F\	.	4c\	-ra	4f\	-ra	.	.	8b-/L	8dd\L
.	.	16cc\	16ff\	.	.	.	.	.	.	.	.	.	.
8FF/J	3	16cc\	16ff\	8FF/J	.	.	.	.	.	.	.	16f/L	16cc\L
.	.	16cc\JJ	16ff\JJ	.	.	.	.	.	.	.	.	16f/JJ	16b-\JJ
!	!	!	!	!	!	!	!	!	!	!	!	!	!LO:LB:g=original
=24	=24	=24	=24	=24	=24	=24	=24	=24	=24	=24	=24	=24	=24
8BB-/L	.	16dd\LL	16ff\LL	8BB-/	-bis	8d\	pro-	8.f\	pro-	1ryy	.	8d/L	8b-/L
.	.	16ff\	16bb-\	.	.	.	.	.	.	.	.	.	.
8D/J	6	16ff\	16bb-\	8D/	pro-	8d\	-no-	.	.	.	.	16f/L	16f/L
.	.	16ff\JJ	16bb-\JJ	.	.	.	.	16f\	.	.	.	16f/JJ	16f/JJ
8E-\L	6 5	16gg\LL	16bb-\LL	8E-\L	-no-	4c\	.	(8g\L	-no-	.	.	16f/LL	16f/LL
.	.	16ff\	16aa\	.	.	.	.	.	.	.	.	16f/	16f/
8F\J	.	16ff\	16aa\	8F\J	.	.	.	8f\J)	.	.	.	16f/	16f/
.	.	16ff\JJ	16aa\JJ	.	.	.	.	.	.	.	.	16f/JJ	16f/JJ
4BB-/	.	4ff\	4bb-\	4BB-/	-bis	4d\	-bis	4f\	-bis	.	.	4d/	4f/
4r	.	4r	4r	4r	.	4r	.	4r	.	.	.	4r	4r
==;;	==	==	==;;	==;;	==	==;;	==	==;;	==	==	==	==	==
*-	*-	*-	*-	*-	*-	*-	*-	*-	*-	*-	*-	*-	*-
!!!system-decoration: [g1][g2][g3]
!!!RDF**kern: > = above
!!!RDF**kern: < = below
!!!AIN: 1 alto 3 empty 1 tenor 1 viola 2 violn 1 vox
!!!ENC: Marta Lawrence
!!!END: 2020-11-05
!!!ENC: Marcin Jachim
!!!END: 2020-05-03
